X:5664
T: Ross' Reel Number 4
O:england
M: C|
L: 1/8
K: F
|: a2 || "C7"g3f e2d2 | "F"cdcB A2GF | "C7"ECEG c2cB | "F"AFAc f2a2 |
| "C7"g3f e2d2 | "F"cdcB A2GF | "C7"EFGA Bcde | "F"f2a2 f2  :|
|: cB || "F"Ac~c2 dc~c2 | Acfc acfc | Ac~c2 dc~c2 | Acfc acfc |
| "C7"Bc~c2 dc~c2 | =Bcec gc_bc | =Bcec gc_bc | acgc "F"f2 :|
%%sep 5 5 5cm


